X:211
T: Ritter Sent Jerry (3-14), S. 51
N: P0986
O: Lothringen
S: PINCK, Louis: Verklingende Weisen, Bd3, Metz 1933]
R: yyy]
M: 3/4
L: 1/8
K: F
F2 | G2G2A2 | B2A2d2 | c2A2d2 | c4
G2 | G2A2B2 | c4
cc | c4d2 | c2B2A2 | B2A2GG | A2G2
F2 | G4A2 | c4G2 | A4G2 | F4

@@@ Tune index: 7761
